X: 1
T: Cabernet
C: Marnen Laibow-Koser, 31 August 2012
M: 3/4
L: 1/8
K: Em
zB,EF || "Em"G2 zB,EF | G2 zB,EF | G2B3A | "C"G2F2E2 |\
"D"F2 zA,DE | F2 zA,DE | F2A3G | "Bm"F2E2D2 |\
"C"E2 zG,CD | EFGABc | "G"c2B2B,C | DEFGAB |\
"Am"B2A2zA, | CDEFGA | "F#m7b5"G2F2E2 | "B"B2 zB"G"cd |:\
"C"e2 zGcd | e2g3f | e2d2c2 | "Bm" d2zFBc |\
d2f2e2 | d2c2B2 | "E"e2z2E^D | EF^GABc |\
"Am"B2A2zd | "D"DEF=GAB | "G"A2G2zc | "C"CDEFGA |\
"F#m7b5"G2F2zA | "F/a"A,2=F2E2 | "B"^D2zB,GF |1 "Em"EGAB"G"cd :|2 E2 |]
